X:21150 
T:O'SULLIVAN'S MARCH 
B:DMI.0051
Z:Nordberg/Black
R:jig
%Q:1/4=160
M:6/8
L:1/8
K:D
d|AFF DFF|AGF G2B|AFF DFD|EDD DdB|
AFF DFG|AGF G2B|AFA dAF|EDD D2:|
d|BAd BAd|Bdc BAF|AFd AFd|AFd ABc|
d3 fdB|AGF G2B|AFA dAF|EDD D2:|

%%%

